X: 1276
T: Kuzucağım Ne Kaçarsın
C: Hacı Fâik Bey
O: Turkey
F: http://compmusic.upf.edu/node/140
N: suzinak-zirgule--sarki--duyek--kuzucagim_ne--haci_faik_bey
N: makam= suzinak-zirgule
N: form= sarki
N: usul= duyek = 8/4
M: 8/4
L: 1/16
K: C _1/4B _7/8e _7/8A ^f
Q: 1/4=120
%%MIDI tuningsystem comma53
gf ge d2 f2 e2 ed c4  | d2 dc Bc de dc BA G3/2F/ G/A/B/c/  | 
w:  ARANAĞME  |   | 
d/c/d2c c/B/c2B B/A/B2A (3cBA {B}AG  | \
w:   | 
GG2A B2 c2 d2 e2 f2 g2  | 
w:   | 
gf ge d2 f2 e2 ed c4  | d2 dc Bc de dc BA G3/2F/ G/A/B/c/  | 
w:  ARANAĞME  |   | 
d/c/d2c c/B/c2B B/A/B2A (3cBA {B}AG  | \
w:   | 
G6 de dc BA G4  | 
w:   | 
z2 d4 f{g}e e2 ed {e}d2 dc  | cz c4 cB B4 BA G2  | \
w:  Ku zu *  *  ca *  *  *  ğım   |  *  ne  ka *  çar  | 
z2 GA B{c}B c2 d2 c{d}B c2 d2  | 
w:  ben  | 
d2 de fg gf2e ed d4  | z2 d4 f{g}e e2 ed {e}d2 dc  | 
w:  *  den  *  *  *  a man  *  a *  man    |  Ku zu *  *  ca *  *  *  ğım   | 
cz c4 cB B4 BA G2  | z2 GA B{c}B c2 d2 c{d}B c2 d2  | \
w:  *  ne  ka *  çar  |  ben  | 
d2 de fg gf fe ed dd ef  | 
w:  *  den  *  *  *  a *  man  *  a *  man   SAZ  | 
g2 fg ba ag g2 f2 g{a}f ed  | c2 de {a}gf ed dc2e d{e}c {d}B2  | 
w:  *  Ay *  *  *  rı *  lır  *  mı   |  *  bu  *  *  *  *  gö *  nül  *  *  hiç   | 
z2 GA Bc de d{e}c {d}cd BA G2  | d2 cB BA AG GA Bc de fg  | 
w:  sen  |  den  *  *  *  *  a *  man    | 
g2 fg ba ag g2 f2 g{a}f ed  | c2 de {a}gf ed dc2e d{e}c {d}B2  | 
w:  *  Ay *  *  *  rı *  lır  *  mı   |  *  bu  *  *  *  *  gö *  nül  *  *  hiç   | 
z2 GA Bc de d{e}c {d}cd BA G2  | d2 cB BA AG G3g fg =a2  | 
w:  sen  |  den  *  *  *  *  a *  man   SAZ  | 
z2 g4 =a2 _b3/2a/ gf g2 c'2  | c'2 c'_b b=a ag ag fe fe d2  | 
w:  Ne  çı kar  *  *  *  böy  |  *  le  *  *  *  te *  ga *  *  *  fül   | 
d2 Bc de fg =a_b ag f3/2e/ d2  | =a2 gf fe {f}ed d3g fg a2  | 
w:  *  ler   |  den  *  *  a *  *  *  *  man   SAZ  | 
z2 g4 =a2 _b3/2a/ gf g2 c'2  | c'2 c'_b b=a ag ag fe fe d2  | 
w:  Ne  çı kar  *  *  *  böy  |  *  le  *  *  *  te *  ga *  *  *  fül   | 
d2 Bc de fg =a_b ag f3/2e/ d2  | =a2 gf2e {f}ed d3g f_7/8a g2  | 
w:  *  ler   |  den  *  *  *  *  a *  man   SAZ  | 
g2 fg ba ag g2 f2 g{a}f ed  | c2 de {a}gf ed dc2e d{e}c {d}B2  | 
w:  *  Ay *  *  *  rı *  lır  *  mı   |  *  bu  *  *  *  *  gö *  nül  *  *  hiç   | 
z2 GA Bc de d{e}c {d}cd BA G2  | d2 cB BA AG GA Bc de fg  | 
w:  sen  |  den  *  *  *  *  a *  man    | 
g2 fg ba ag g2 f2 g{a}f ed  | c2 de {a}gf ed dc2e d{e}c {d}B2  | 
w:  *  Ay *  *  *  rı *  lır  *  mı   |  *  bu  *  *  *  *  gö *  nül  *  *  hiç   | 
z2 GA Bc de d{e}c {d}cd BA G2  | d2 cB BA AG G8  | 
w:  sen  |  den  KARAR *  a *  *  *  man    | 
|


